src/img/starbase-s.svg

<svg width="362" height="205" viewBox="0 0 362 205" fill="none" xmlns="http://www.w3.org/2000/svg">
<path d="M193.47 88.7422L217.731 73.4645L241.992 88.7422C225.818 85.5214 209.644 85.5214 193.47 88.7422Z" fill="url(#paint0_linear)"/>
<path fill-rule="evenodd" clip-rule="evenodd" d="M193.47 88.7422L217.731 73.4645L241.992 88.7422C225.818 85.5214 209.644 85.5214 193.47 88.7422Z" fill="url(#paint1_linear)"/>
<path fill-rule="evenodd" clip-rule="evenodd" d="M-4.41932e-05 204.51H55.6694C68.24 204.51 76.9195 197.423 76.9195 187.158L76.9195 172.738C76.9195 166.75 73.3277 162.351 66.2943 159.54C72.5796 156.485 75.722 152.086 75.722 146.342L75.722 133.878C75.722 123.613 67.0428 116.526 54.4723 116.526H-6.02667e-05L-4.41932e-05 204.51ZM21.5493 132.901H49.0846C52.5266 132.901 54.1727 134.245 54.1727 137.056L54.1727 147.565C54.1727 150.986 53.1254 151.72 49.0846 151.72H21.5493L21.5493 132.901ZM21.5493 167.361H48.4862C53.4245 167.361 55.3699 167.85 55.3699 171.272L55.3699 183.981C55.3699 186.791 53.7242 188.135 50.2821 188.135H21.5493L21.5493 167.361ZM152.342 184.714L159.375 204.51H182.571L147.853 116.526H122.712L87.9933 204.51H110.291L117.474 184.714H152.342ZM146.506 168.095H123.46L135.133 135.833L146.506 168.095ZM267.721 143.654L267.721 133.389C267.721 123.124 259.042 116.037 246.471 116.037H214.746C202.175 116.037 193.496 123.124 193.496 133.389L193.496 148.298C193.496 157.585 202.474 163.573 215.045 165.895L242.88 170.783C246.471 171.394 247.968 172.372 247.968 174.938L247.968 184.225C247.968 187.036 246.322 188.38 242.88 188.38H219.535C216.093 188.38 214.446 187.036 214.446 184.225L214.446 176.404H193.496L193.496 187.647C193.496 197.912 202.175 204.999 214.746 204.999H248.267C260.838 204.999 269.517 197.912 269.517 187.647L269.517 171.76C269.517 162.473 260.539 156.485 247.968 154.164L220.133 149.276C216.541 148.664 215.045 147.687 215.045 145.121L215.045 136.811C215.045 134 216.691 132.656 220.133 132.656H241.683C245.124 132.656 246.771 134 246.771 136.811L246.771 143.654H267.721ZM291.516 204.51H362L362 187.891H313.065L313.065 167.85H352.722L352.722 151.23H291.516L291.516 204.51ZM362 133.145L362 116.526H291.516L291.516 133.145H362Z" fill="url(#paint2_linear)"/>
<path fill-rule="evenodd" clip-rule="evenodd" d="M342.47 55.1116C351.461 53.0342 357.156 46.8021 357.156 38.4926L357.156 17.8404C357.156 7.57545 348.464 0.488058 335.876 0.488058L280.878 0.488058L280.878 88.4726H302.457L302.457 55.8446H319.841L337.225 88.4726H360.453L342.47 55.1116ZM80.5177 27.6167L80.5177 17.3514C80.5177 7.08653 71.826 -0.000976563 59.2374 -0.000976563L27.4679 -0.000976562C14.8797 -0.000976562 6.18806 7.08653 6.18806 17.3514L6.18807 32.2604C6.18807 41.5473 15.1793 47.535 27.7674 49.8571L55.641 54.7453C59.2374 55.3562 60.7362 56.3339 60.7362 58.9L60.7362 68.1872C60.7362 70.9979 59.0878 72.3419 55.641 72.3419H32.2632C28.8162 72.3419 27.1679 70.9979 27.1679 68.1872L27.1679 60.3664H6.18807L6.18807 71.6089C6.18808 81.8739 14.8797 88.9613 27.4679 88.9613H61.0359C73.6239 88.9613 82.3157 81.8739 82.3157 71.6089L82.3157 55.7225C82.3157 46.4354 73.3244 40.4475 60.7362 38.1259L32.8624 33.2378C29.2659 32.6267 27.7674 31.6493 27.7674 29.083L27.7674 20.7731C27.7674 17.9624 29.4159 16.6184 32.8624 16.6184H54.4421C57.8891 16.6184 59.5374 17.9624 59.5374 20.7731L59.5374 27.6167H80.5177ZM172.68 0.488058L94.7538 0.488058L94.7538 16.863H122.927L122.927 88.4726H144.507L144.507 16.863H172.68L172.68 0.488058ZM241.915 88.4726H265.143L230.375 0.488058L205.2 0.488058L170.432 88.4726H192.761C201.079 65.5813 209.341 42.6922 217.638 19.7957C225.72 42.6902 233.774 65.5918 241.915 88.4726ZM335.576 35.3151C335.576 38.1259 333.928 39.4699 330.481 39.4699H302.457L302.457 17.1071L330.481 17.1071C333.928 17.1071 335.576 18.4517 335.576 21.2621L335.576 35.3151Z" fill="url(#paint3_linear)"/>
<defs>
<linearGradient id="paint0_linear" x1="181" y1="-0.000976562" x2="181" y2="204.999" gradientUnits="userSpaceOnUse">
<stop stop-color="#7D33F7"/>
<stop offset="0.885725" stop-color="#0098FF"/>
</linearGradient>
<linearGradient id="paint1_linear" x1="181" y1="-0.000976562" x2="181" y2="204.999" gradientUnits="userSpaceOnUse">
<stop stop-color="#7D33F7"/>
<stop offset="0.885725" stop-color="#0098FF"/>
</linearGradient>
<linearGradient id="paint2_linear" x1="181" y1="-0.000976562" x2="181" y2="204.999" gradientUnits="userSpaceOnUse">
<stop stop-color="#7D33F7"/>
<stop offset="0.885725" stop-color="#0098FF"/>
</linearGradient>
<linearGradient id="paint3_linear" x1="181" y1="-0.000976562" x2="181" y2="204.999" gradientUnits="userSpaceOnUse">
<stop stop-color="#7D33F7"/>
<stop offset="0.885725" stop-color="#0098FF"/>
</linearGradient>
</defs>
</svg>

<svg width="362" height="205" fill="none" xmlns="http://www.w3.org/2000/svg"><path d="m193.47 88.742 24.261-15.278 24.261 15.278c-16.174-3.22-32.348-3.22-48.522 0Z" fill="url(#a)"/><path fill-rule="evenodd" clip-rule="evenodd" d="m193.47 88.742 24.261-15.278 24.261 15.278c-16.174-3.22-32.348-3.22-48.522 0Z" fill="url(#b)"/><path fill-rule="evenodd" clip-rule="evenodd" d="M0 204.51h55.67c12.57 0 21.25-7.087 21.25-17.352v-14.42c0-5.988-3.592-10.387-10.626-13.198 6.286-3.055 9.428-7.454 9.428-13.198v-12.464c0-10.265-8.68-17.352-21.25-17.352H0v87.984Zm21.55-71.609h27.535c3.442 0 5.088 1.344 5.088 4.155v10.509c0 3.421-1.048 4.155-5.088 4.155H21.549v-18.819Zm0 34.46h26.936c4.939 0 6.884.489 6.884 3.911v12.709c0 2.81-1.646 4.154-5.088 4.154H21.55v-20.774Zm130.792 17.353 7.033 19.796h23.196l-34.718-87.984h-25.141L87.993 204.51h22.298l7.183-19.796h34.868Zm-5.836-16.619H123.46l11.673-32.262 11.373 32.262Zm121.215-24.441v-10.265c0-10.265-8.679-17.352-21.25-17.352h-31.725c-12.571 0-21.25 7.087-21.25 17.352v14.909c0 9.287 8.978 15.275 21.549 17.597l27.835 4.888c3.591.611 5.088 1.589 5.088 4.155v9.287c0 2.811-1.646 4.155-5.088 4.155h-23.345c-3.442 0-5.089-1.344-5.089-4.155v-7.821h-20.95v11.243c0 10.265 8.679 17.352 21.25 17.352h33.521c12.571 0 21.25-7.087 21.25-17.352V171.76c0-9.287-8.978-15.275-21.549-17.596l-27.835-4.888c-3.592-.612-5.088-1.589-5.088-4.155v-8.31c0-2.811 1.646-4.155 5.088-4.155h21.55c3.441 0 5.088 1.344 5.088 4.155v6.843h20.95Zm23.795 60.856H362v-16.619h-48.935V167.85h39.657v-16.62h-61.206v53.28ZM362 133.145v-16.619h-70.484v16.619H362Z" fill="url(#c)"/><path fill-rule="evenodd" clip-rule="evenodd" d="M342.47 55.112c8.991-2.078 14.686-8.31 14.686-16.62V17.84c0-10.265-8.692-17.352-21.28-17.352h-54.998v87.985h21.579V55.845h17.384l17.384 32.628h23.228L342.47 55.112ZM80.518 27.617V17.35C80.518 7.087 71.826 0 59.238 0h-31.77C14.88 0 6.188 7.088 6.188 17.352v14.91c0 9.286 8.991 15.274 21.58 17.596l27.873 4.888c3.596.611 5.095 1.589 5.095 4.155v9.287c0 2.81-1.648 4.155-5.095 4.155H32.263c-3.447 0-5.095-1.344-5.095-4.155v-7.82H6.188V71.61c0 10.265 8.692 17.352 21.28 17.352h33.568c12.588 0 21.28-7.087 21.28-17.352V55.723c0-9.288-8.992-15.276-21.58-17.597l-27.874-4.888c-3.596-.611-5.095-1.589-5.095-4.155v-8.31c0-2.81 1.649-4.155 5.095-4.155h21.58c3.447 0 5.095 1.344 5.095 4.155v6.844h20.98ZM172.68.488H94.754v16.375h28.173v71.61h21.58v-71.61h28.173V.488Zm69.235 87.985h23.228L230.375.488H205.2l-34.768 87.985h22.329c8.318-22.892 16.58-45.78 24.877-68.677 8.082 22.894 16.136 45.796 24.277 68.677Zm93.661-53.158c0 2.81-1.648 4.155-5.095 4.155h-28.024V17.107h28.024c3.447 0 5.095 1.345 5.095 4.155v14.053Z" fill="url(#d)"/><defs><linearGradient id="a" x1="181" y1="-.001" x2="181" y2="204.999" gradientUnits="userSpaceOnUse"><stop stop-color="#7D33F7"/><stop offset=".886" stop-color="#0098FF"/></linearGradient><linearGradient id="b" x1="181" y1="-.001" x2="181" y2="204.999" gradientUnits="userSpaceOnUse"><stop stop-color="#7D33F7"/><stop offset=".886" stop-color="#0098FF"/></linearGradient><linearGradient id="c" x1="181" y1="-.001" x2="181" y2="204.999" gradientUnits="userSpaceOnUse"><stop stop-color="#7D33F7"/><stop offset=".886" stop-color="#0098FF"/></linearGradient><linearGradient id="d" x1="181" y1="-.001" x2="181" y2="204.999" gradientUnits="userSpaceOnUse"><stop stop-color="#7D33F7"/><stop offset=".886" stop-color="#0098FF"/></linearGradient></defs></svg>
